X:1
T:I Ken Whaur I'm Gaun
M:2/4
L:1/8
K:F
 FF GA| F4| AA AB| A G3| c c/2c/2 c c/2c/2| F2 FF| GA BA| A G3|
